src/assets/img/info.svg

<svg version="1.2" baseProfile="tiny-ps" xmlns="http://www.w3.org/2000/svg" width="6" height="15"><style></style><g id="1"><g id="Recent Activity"><g id="Small Button"><path id="i" d="M5.28 12.91c-.22.06-.42.09-.59.09-.38 0-.64-.06-.79-.19-.16-.12-.23-.35-.23-.69 0-.14.02-.33.07-.6.05-.26.1-.5.16-.7l.72-2.56c.07-.23.12-.49.15-.77.02-.28.04-.48.04-.59 0-.54-.19-.98-.57-1.32-.38-.33-.92-.5-1.62-.5-.38 0-.79.07-1.23.21-.43.13-.89.3-1.36.49l-.2.79c.14-.05.31-.11.51-.16.2-.06.39-.09.58-.09.38 0 .64.06.77.19.14.13.21.36.21.69 0 .18-.03.38-.07.6-.04.22-.1.45-.16.7l-.73 2.56c-.06.27-.11.52-.14.73-.03.21-.04.42-.04.63 0 .53.19.96.58 1.3.39.35.94.52 1.64.52.46 0 .86-.06 1.2-.18.35-.12.81-.3 1.39-.53l.2-.79c-.1.05-.26.1-.49.17ZM5.45.87C5.11.55 4.7.39 4.23.39c-.48 0-.88.16-1.22.48-.34.32-.51.7-.51 1.14 0 .45.17.83.51 1.14.34.31.74.47 1.22.47.47 0 .88-.16 1.22-.47.33-.31.5-.69.5-1.14 0-.44-.17-.82-.5-1.14Z" style="fill:#3e4855"/></g></g></g></svg>

<svg version="1.2" baseProfile="tiny-ps" xmlns="http://www.w3.org/2000/svg" viewBox="0 0 6 15" width="6" height="15">
	<title>1</title>
	<style>
		tspan { white-space:pre }
		.shp0 { fill: #3e4855 } 
	</style>
	<g id="1">
		<g id="Recent Activity">
			<g id="Small Button">
				<path id="i" class="shp0" d="M5.28 12.91C5.06 12.97 4.86 13 4.69 13C4.31 13 4.05 12.94 3.9 12.81C3.74 12.69 3.67 12.46 3.67 12.12C3.67 11.98 3.69 11.79 3.74 11.52C3.79 11.26 3.84 11.02 3.9 10.82L4.62 8.26C4.69 8.03 4.74 7.77 4.77 7.49C4.79 7.21 4.81 7.01 4.81 6.9C4.81 6.36 4.62 5.92 4.24 5.58C3.86 5.25 3.32 5.08 2.62 5.08C2.24 5.08 1.83 5.15 1.39 5.29C0.96 5.42 0.5 5.59 0.03 5.78L-0.17 6.57C-0.03 6.52 0.14 6.46 0.34 6.41C0.54 6.35 0.73 6.32 0.92 6.32C1.3 6.32 1.56 6.38 1.69 6.51C1.83 6.64 1.9 6.87 1.9 7.2C1.9 7.38 1.87 7.58 1.83 7.8C1.79 8.02 1.73 8.25 1.67 8.5L0.94 11.06C0.88 11.33 0.83 11.58 0.8 11.79C0.77 12 0.76 12.21 0.76 12.42C0.76 12.95 0.95 13.38 1.34 13.72C1.73 14.07 2.28 14.24 2.98 14.24C3.44 14.24 3.84 14.18 4.18 14.06C4.53 13.94 4.99 13.76 5.57 13.53L5.77 12.74C5.67 12.79 5.51 12.84 5.28 12.91ZM5.45 0.87C5.11 0.55 4.7 0.39 4.23 0.39C3.75 0.39 3.35 0.55 3.01 0.87C2.67 1.19 2.5 1.57 2.5 2.01C2.5 2.46 2.67 2.84 3.01 3.15C3.35 3.46 3.75 3.62 4.23 3.62C4.7 3.62 5.11 3.46 5.45 3.15C5.78 2.84 5.95 2.46 5.95 2.01C5.95 1.57 5.78 1.19 5.45 0.87Z" />
			</g>
		</g>
	</g>
</svg>
